icon/pk/clothes-suit.svg

<svg width="48" height="48" fill="none" xmlns="http://www.w3.org/2000/svg"><path d="M37 21v16m-26 0v7h26v-7m-26 0H4V10l14-6h12l14 6v27h-7m-26 0V21M30 4l-6 14m0 0L18 4m6 14v26M30 4l-6 14M24 18 18 4" stroke="#000" stroke-width="4" stroke-linecap="round" stroke-linejoin="round"/><path d="m18 4-4 8 4 5.5-2 5.5 8 14M30 4l5 8-5 5.5 2 5.5-8 14" stroke="#000" stroke-width="4" stroke-linecap="round" stroke-linejoin="round"/></svg>

<svg viewBox="0 0 48 48" fill="none" xmlns="http://www.w3.org/2000/svg" height="1em" width="1em">
  <path d="M37 21V37M11 37V44H37V37M11 37H4V10L18 4H30L44 10V37H37M11 37V21" stroke="black" stroke-width="4" stroke-linecap="round" stroke-linejoin="round"/>
  <path d="M30 4L24 18M24 18L18 4M24 18V37V44" stroke="black" stroke-width="4" stroke-linecap="round" stroke-linejoin="round"/>
  <path d="M30 4L24 18" stroke="black" stroke-width="4" stroke-linecap="round" stroke-linejoin="round"/>
  <path d="M24 18L18 4" stroke="black" stroke-width="4" stroke-linecap="round" stroke-linejoin="round"/>
  <path d="M18 4L14 12L18 17.5L16 23L24 37" stroke="black" stroke-width="4" stroke-linecap="round" stroke-linejoin="round"/>
  <path d="M30 4L35 12L30 17.5L32 23L24 37" stroke="black" stroke-width="4" stroke-linecap="round" stroke-linejoin="round"/>
</svg>
